static/B2C/vk.svg

<?xml version="1.0" encoding="UTF-8"?>
<svg width="26px" height="26px" viewBox="0 0 26 26" version="1.1" xmlns="http://www.w3.org/2000/svg" xmlns:xlink="http://www.w3.org/1999/xlink">
    <!-- Generator: Sketch 52.4 (67378) - http://www.bohemiancoding.com/sketch -->
    <title>vk</title>
    <desc>Created with Sketch.</desc>
    <g id="Plans" stroke="none" stroke-width="1" fill="none" fill-rule="evenodd">
        <g id="5-product-plans" transform="translate(-251.000000, -768.000000)" fill-rule="nonzero">
            <g id="soc" transform="translate(123.000000, 768.000000)">
                <g id="social">
                    <g id="vk" transform="translate(128.000000, 0.000000)">
                        <circle id="Oval-6" fill="#4C75A3" cx="12.8576586" cy="12.8576586" r="12.8576586"></circle>
                        <path d="M12.5441551,18.0054561 L13.5472221,18.0054561 C13.5472221,18.0054561 13.8501434,17.9727089 14.0050789,17.8095594 C14.1474327,17.6595557 14.1428793,17.3779761 14.1428793,17.3779761 C14.1428793,17.3779761 14.1232278,16.0596342 14.747883,15.8653806 C15.3637908,15.6740614 16.1545254,17.13959 16.9925915,17.7031014 C17.6263535,18.1294028 18.1080557,18.0360907 18.1080557,18.0360907 L20.3491695,18.0053388 C20.3491695,18.0053388 21.5214314,17.934445 20.9655566,17.0316062 C20.9200226,16.9578954 20.6416658,16.3637495 19.2991304,15.1430626 C17.8936862,13.8654493 18.0821732,14.0721445 19.7749612,11.8621142 C20.805828,10.5163068 21.2179111,9.69457324 21.0890977,9.34280412 C20.9663954,9.0075847 20.2081337,9.0960845 20.2081337,9.0960845 L17.6848288,9.11134309 C17.6848288,9.11134309 17.4976599,9.08634248 17.3590207,9.16768249 C17.2233772,9.24714452 17.1363832,9.43282978 17.1363832,9.43282978 C17.1363832,9.43282978 16.7368819,10.474287 16.2043732,11.3599893 C15.0807608,13.2288141 14.6314117,13.3277602 14.4477178,13.2115602 C14.0204167,12.9410137 14.1271821,12.1251488 14.1271821,11.5453225 C14.1271821,9.73412819 14.4076957,8.9789455 13.5810132,8.78340084 C13.3067305,8.71861053 13.1047031,8.67565174 12.4032392,8.66872669 C11.5028634,8.65980629 10.7408871,8.67142629 10.3093922,8.87847358 C10.022288,9.01615298 9.8008488,9.32296796 9.93577336,9.34069139 C10.1025718,9.36240553 10.4801448,9.44057645 10.6803748,9.70736698 C10.9390801,10.0520937 10.9299733,10.8258214 10.9299733,10.8258214 C10.9299733,10.8258214 11.078558,12.9579155 10.5829559,13.2227107 C10.2428885,13.4044053 9.77628438,13.0335042 8.77453543,11.3379231 C8.26131882,10.4693573 7.87380015,9.50924009 7.87380015,9.50924009 C7.87380015,9.50924009 7.79914828,9.32989301 7.66590129,9.23376391 C7.50425544,9.11744652 7.27826279,9.08059117 7.27826279,9.08059117 L4.88029627,9.09596713 C4.88029627,9.09596713 4.52033767,9.10582652 4.38816912,9.25911664 C4.27049957,9.3956223 4.37882266,9.67755405 4.37882266,9.67755405 C4.37882266,9.67755405 6.25602351,13.979654 8.38174439,16.1476645 C10.3310808,18.1358584 12.5441551,18.0054561 12.5441551,18.0054561" id="Shape-Copy-2" fill="#FFFFFF"></path>
                    </g>
                </g>
            </g>
        </g>
    </g>
</svg>

<svg width="26" height="26" xmlns="http://www.w3.org/2000/svg"><g fill-rule="nonzero" fill="none"><circle fill="#4C75A3" cx="12.858" cy="12.858" r="12.858"/><path d="M12.544 18.005h1.003s.303-.032.458-.195c.142-.15.138-.432.138-.432s-.02-1.318.605-1.513c.616-.19 1.407 1.275 2.245 1.838.633.426 1.115.333 1.115.333l2.241-.03s1.172-.072.617-.974c-.046-.074-.324-.668-1.667-1.889-1.405-1.278-1.217-1.07.476-3.28 1.03-1.347 1.443-2.168 1.314-2.52-.123-.335-.88-.247-.88-.247l-2.524.015s-.187-.025-.326.057c-.136.08-.223.265-.223.265s-.4 1.041-.932 1.927c-1.123 1.869-1.573 1.968-1.756 1.852-.428-.271-.32-1.087-.32-1.667 0-1.81.28-2.566-.547-2.762-.274-.064-.476-.107-1.178-.114-.9-.01-1.662.002-2.094.21-.287.137-.508.444-.373.462.167.021.544.1.744.366.26.345.25 1.119.25 1.119s.149 2.132-.347 2.397c-.34.181-.807-.19-1.808-1.885-.514-.869-.901-1.829-.901-1.829s-.075-.18-.208-.275c-.162-.117-.388-.153-.388-.153l-2.398.015s-.36.01-.492.163c-.118.137-.01.419-.01.419s1.878 4.302 4.004 6.47c1.95 1.988 4.162 1.857 4.162 1.857" fill="#FFF"/></g></svg>
